Dominus_Dark_Funeral/scalable/apps/rapidsvn.svg

<?xml version="1.0" encoding="UTF-8" standalone="no"?><svg xmlns:dc="http://purl.org/dc/elements/1.1/" xmlns:cc="http://creativecommons.org/ns#" xmlns:rdf="http://www.w3.org/1999/02/22-rdf-syntax-ns#" xmlns="http://www.w3.org/2000/svg" xmlns:xlink="http://www.w3.org/1999/xlink" width="48" height="48" viewBox="0 0 12.7 12.7"><metadata><rdf:RDF><cc:Work><dc:format>image/svg+xml</dc:format><dc:type rdf:resource="http://purl.org/dc/dcmitype/StillImage"/><dc:title/></cc:Work></rdf:RDF></metadata><defs><linearGradient id="a"><stop offset="0"/><stop offset="1" stop-opacity="0"/></linearGradient><linearGradient xlink:href="#a" id="d" gradientUnits="userSpaceOnUse" x1="-.35" y1="284.92" x2="11.24" y2="294.61"/><linearGradient gradientTransform="translate(.08 284.26) scale(.26458)" xlink:href="#b" id="c" x1="23.52" y1="47.99" x2="23.71" y2=".49" gradientUnits="userSpaceOnUse"/><linearGradient id="b"><stop offset="0" stop-color="#b7c8b7"/><stop offset="1" stop-color="#677867"/></linearGradient></defs><path transform="translate(0 -284.3)" fill="url(#c)" d="M6.35 284.4c-1.54 0-2.78.28-3.68.87A3.67 3.67 0 0 0 1 288.52c0 1.91 1.54 4.47 2.01 5.2a14.41 14.41 0 0 0 1.65 2.16c.68.7 1.21 1.03 1.69 1.03.47 0 1.01-.33 1.68-1.03.53-.55 1.12-1.31 1.66-2.15.47-.74 2-3.3 2-5.2 0-1.43-.57-2.55-1.65-3.26a6.7 6.7 0 0 0-3.7-.88z"/><path transform="translate(0 -284.3)" d="M7.23 296.57c.25-.17.5-.38.8-.69.53-.55 1.12-1.31 1.66-2.15.23-.37.74-1.2 1.18-2.17.22-.48.43-1 .58-1.52.14-.49.22-.96.23-1.41l-2.16-2.16-.5 2.33-1.338-1.169-3.582-.541-.752.953-.288 1.017.916.669-.654.27-.292 2.381z" fill="url(#d)"/><path opacity=".4" d="M1.04 3.9c0 .1-.04.2-.04.32 0 1.91 1.54 4.47 2.01 5.2.54.85 1.13 1.61 1.65 2.16.68.7 1.21 1.03 1.69 1.03s1.01-.33 1.69-1.03c.52-.55 1.11-1.31 1.65-2.15.47-.74 2-3.3 2-5.21 0-.11-.02-.21-.03-.32-.02.42-.08.86-.21 1.3-.15.53-.36 1.05-.58 1.53-.44.97-.95 1.8-1.18 2.17-.54.84-1.13 1.6-1.65 2.15-.34.35-.64.61-.92.78-.28.17-.53.25-.77.25s-.5-.08-.77-.25a4.76 4.76 0 0 1-.92-.78A14.41 14.41 0 0 1 3.01 8.9c-.23-.37-.74-1.2-1.18-2.17-.22-.48-.43-1-.58-1.52-.13-.45-.19-.89-.21-1.31z"/><path d="M9.02 4.5l.5-2.33L9.53 5H6.87z" fill="#fff"/><path d="M9.02 4.5c-2.75-2.92-6.05-2.37-5.96.26.4-2.1 2.65-2.1 4.68-.68zM3.53 5.75l-.5 2.32-.01-2.84h2.66z" fill="#fff"/><path d="M3.53 5.75c2.75 2.9 6.05 2.36 5.96-.27-.39 2.1-2.64 2.1-4.68.68z" fill="#fff"/></svg>

<?xml version="1.0" encoding="UTF-8" standalone="no"?>
<svg
   xmlns:dc="http://purl.org/dc/elements/1.1/"
   xmlns:cc="http://creativecommons.org/ns#"
   xmlns:rdf="http://www.w3.org/1999/02/22-rdf-syntax-ns#"
   xmlns:svg="http://www.w3.org/2000/svg"
   xmlns="http://www.w3.org/2000/svg"
   xmlns:xlink="http://www.w3.org/1999/xlink"
   xmlns:sodipodi="http://sodipodi.sourceforge.net/DTD/sodipodi-0.dtd"
   xmlns:inkscape="http://www.inkscape.org/namespaces/inkscape"
   width="48"
   height="48"
   viewBox="0 0 12.7 12.7"
   version="1.1"
   id="svg30"
   sodipodi:docname="rapidsvn.svg"
   inkscape:version="0.92.4 (5da689c313, 2019-01-14)">
  <sodipodi:namedview
     pagecolor="#ffffff"
     bordercolor="#666666"
     borderopacity="1"
     objecttolerance="10"
     gridtolerance="10"
     guidetolerance="10"
     inkscape:pageopacity="0"
     inkscape:pageshadow="2"
     inkscape:window-width="1112"
     inkscape:window-height="480"
     id="namedview32"
     showgrid="false"
     inkscape:zoom="4.9166667"
     inkscape:cx="2.1355932"
     inkscape:cy="24"
     inkscape:window-x="0"
     inkscape:window-y="25"
     inkscape:window-maximized="0"
     inkscape:current-layer="svg30" />
  <metadata
     id="metadata2">
    <rdf:RDF>
      <cc:Work>
        <dc:format>image/svg+xml</dc:format>
        <dc:type
           rdf:resource="http://purl.org/dc/dcmitype/StillImage" />
        <dc:title></dc:title>
      </cc:Work>
    </rdf:RDF>
  </metadata>
  <defs
     id="defs16">
    <linearGradient
       id="a">
      <stop
         offset="0"
         id="stop4" />
      <stop
         offset="1"
         stop-opacity="0"
         id="stop6" />
    </linearGradient>
    <linearGradient
       xlink:href="#a"
       id="d"
       gradientUnits="userSpaceOnUse"
       x1="-.35"
       y1="284.92"
       x2="11.24"
       y2="294.61"
       gradientTransform="translate(0,-284.3)" />
    <linearGradient
       gradientTransform="matrix(0.26458,0,0,0.26458,0.08,-0.04)"
       xlink:href="#b"
       id="c"
       x1="23.52"
       y1="47.99"
       x2="23.71"
       y2=".49"
       gradientUnits="userSpaceOnUse" />
    <linearGradient
       id="b">
      <stop
         offset="0"
         stop-color="#b7c8b7"
         id="stop11" />
      <stop
         offset="1"
         stop-color="#677867"
         id="stop13" />
    </linearGradient>
  </defs>
  <path
     d="M 6.35,0.1 C 4.81,0.1 3.57,0.38 2.67,0.97 A 3.67,3.67 0 0 0 1,4.22 c 0,1.91 1.54,4.47 2.01,5.2 a 14.41,14.41 0 0 0 1.65,2.16 c 0.68,0.7 1.21,1.03 1.69,1.03 0.47,0 1.01,-0.33 1.68,-1.03 0.53,-0.55 1.12,-1.31 1.66,-2.15 0.47,-0.74 2,-3.3 2,-5.2 0,-1.43 -0.57,-2.55 -1.65,-3.26 A 6.7,6.7 0 0 0 6.34,0.09 Z"
     id="path18"
     style="fill:url(#c)"
     inkscape:connector-curvature="0" />
  <path
     d="m 7.23,12.27 c 0.25,-0.17 0.5,-0.38 0.8,-0.69 0.53,-0.55 1.12,-1.31 1.66,-2.15 0.23,-0.37 0.74,-1.2 1.18,-2.17 0.22,-0.48 0.43,-1 0.58,-1.52 0.14,-0.49 0.22,-0.96 0.23,-1.41 L 9.52,2.17 9.02,4.5 7.682,3.331 4.1,2.79 3.348,3.743 3.06,4.76 3.976,5.429 3.322,5.699 3.03,8.08 Z"
     id="path20"
     style="fill:url(#d)"
     inkscape:connector-curvature="0" />
  <path
     d="M 1.04,3.9 C 1.04,4 1,4.1 1,4.22 c 0,1.91 1.54,4.47 2.01,5.2 0.54,0.85 1.13,1.61 1.65,2.16 0.68,0.7 1.21,1.03 1.69,1.03 0.48,0 1.01,-0.33 1.69,-1.03 0.52,-0.55 1.11,-1.31 1.65,-2.15 0.47,-0.74 2,-3.3 2,-5.21 C 11.69,4.11 11.67,4.01 11.66,3.9 11.64,4.32 11.58,4.76 11.45,5.2 11.3,5.73 11.09,6.25 10.87,6.73 10.43,7.7 9.92,8.53 9.69,8.9 9.15,9.74 8.56,10.5 8.04,11.05 7.7,11.4 7.4,11.66 7.12,11.83 6.84,12 6.59,12.08 6.35,12.08 6.11,12.08 5.85,12 5.58,11.83 A 4.76,4.76 0 0 1 4.66,11.05 14.41,14.41 0 0 1 3.01,8.9 C 2.78,8.53 2.27,7.7 1.83,6.73 1.61,6.25 1.4,5.73 1.25,5.21 1.12,4.76 1.06,4.32 1.04,3.9 Z"
     id="path22"
     inkscape:connector-curvature="0"
     style="opacity:0.4" />
  <path
     d="M 9.02,4.5 9.52,2.17 9.53,5 H 6.87 Z"
     id="path24"
     inkscape:connector-curvature="0"
     style="fill:#ffffff" />
  <path
     d="M 9.02,4.5 C 6.27,1.58 2.97,2.13 3.06,4.76 3.46,2.66 5.71,2.66 7.74,4.08 Z M 3.53,5.75 3.03,8.07 3.02,5.23 h 2.66 z"
     id="path26"
     inkscape:connector-curvature="0"
     style="fill:#ffffff" />
  <path
     d="M 3.53,5.75 C 6.28,8.65 9.58,8.11 9.49,5.48 9.1,7.58 6.85,7.58 4.81,6.16 Z"
     id="path28"
     inkscape:connector-curvature="0"
     style="fill:#ffffff" />
</svg>
